X:1
T:Title
%%score ( 1 2 ) { 3 | 4 }
L:1/8
M:3/2
K:F
V:1 treble nm="Bright Piano"
V:2 treble 
V:3 treble nm="Bright Piano"
V:4 bass 
V:1
 z4 z4 z2[Q:1/4=100] F2 | [Gc]2 cB [FA]2 [EG]2 [DF]2 [DG]2 |[M:4/4] [CE]4 [G,C]4 | %3
[M:6/4] z2 .G4 .c6 | .B6 z6 | [FA]2 [DB]2 [_EG]2 [Gc]2 [Dc]2 [D=B]2 | z6 z4 c2 | z2 .c4 z2 .F4 | %8
[M:3/4] [CF]6 |] %9
V:2
 x12 | z2 E2 z4 z4 |[M:4/4] x8 |[M:6/4] [CF]2 DE [FA]2 FE [Dd]2 [Ec]2 | %4
 F2 G2 [FA]2- [FA]2 z2 [DG]2 | x12 | .[Ec]6 [Gc]2 [FA]2 FE | [Dd]2 E-[EB] [FA]2 [DG]2 C2- [CE]2 | %8
[M:3/4] x6 |] %9
V:3
 z4 z4 z2 A,2 | C2 G,2 C2 C2[K:bass] A,2 B,2 |[M:4/4] G,4 E,4 | %3
[M:6/4] F,2 B,2[K:treble] C2 C2 B,2 A,2 | D2 C2 C2- C2 z2[K:bass] B,2 | A,2 B,2 B,2 _E2 D2 G,2 | %6
 .G,6[K:treble] C2 C2 C2 | B,A,[K:bass] G,2 F,2 B,2 G,4 |[M:3/4] A,6 |] %9
V:4
 z4 z4 z2 F,2 | E,2 C,2 F,2 C,2 D,2 G,,2 |[M:4/4] C,4 C,2 B,,2 | %3
[M:6/4] A,,2 G,,2 F,,2 A,,2 B,,2 C,2 | D,2 E,2 F,2- F,2 z2 G,2 | D,2 B,,2 _E,D, C,2 G,2 G,,2 | %6
 .C,6 E,2 F,2 A,,2 | B,,2 C,2 D,2 B,,2 C,4 |[M:3/4] F,6 |] %9

